X:4
T:Distiller. JJo.004, The
B:J.Johnson Choice Collection Vol 8 1758
Z:vmp.Simon Wilson 2013 www.village-music-project.org.uk
Z:Dance added by John Chambers 2017
M:2/4
L:1/8
%Q:1/4=100
K:C
|: ef/g/ af | (ec)a2 | ef/g/ ac | e2a2 |\
   ef/g/ af | (ec)a2 | dB=gB | d2f2 :|
|: (eA)(cA) | eATc2 | (eA)(cA) | e2a2 |\
   (eA)(cA) | (eA)(cA) | (dB)(=gB) | d2f2 :|
%%begintext align
%% First Cu. cross over and turn .|
%% Cast up and turn :| Lead down one
%% Cu. up again and cast off :||. Right
%% Hands and Left at top :||:
%%endtext
